X:1
T:The Schooner Fred Dunbar
M:6/8
L:1/8
K:C
 G2| E2 EE-G G| E2 G, G,2 C| D2 D E2 D| C3 z2 C| E2 C E2 F| G2 c G2 E|\
 F2 G A2 F| G3 z2 C| E2 C E2 F| G2 c G2 E| F2 G AAF| G3 E3| EEE EGG|\
 E2 G, G,2 C| D2 D E2 D| C3 z||
